build/communication/VKRoundSolid.svg

<svg xmlns="http://www.w3.org/2000/svg" fill="none" viewBox="0 0 24 24" focusable="false"><path d="M0 0H24V24H0z"/><path fill="#74767B" fill-rule="evenodd" d="M12 3C7.02954 3 3 7.02945 3 12C3 16.9706 7.02954 21 12 21C16.9705 21 21 16.9706 21 12C21 7.02945 16.9705 3 12 3ZM6.19995 8.54999C6.29321 13.1678 8.53442 15.9429 12.4636 15.9429L12.6863 15.9429L12.6863 13.301C14.1301 13.449 15.2217 14.5368 15.6599 15.9429L17.7 15.9429C17.1396 13.8412 15.667 12.6793 14.7476 12.2353C15.667 11.6877 16.96 10.3557 17.2688 8.54999L15.4155 8.54999C15.0134 10.0153 13.821 11.3473 12.6863 11.4731L12.6863 8.54999L10.833 8.54999L10.833 13.671C9.68359 13.375 8.23267 11.9393 8.16797 8.54999L6.19995 8.54999Z"/></svg>

<svg xmlns="http://www.w3.org/2000/svg" fill="none" viewBox="0 0 24 24" focusable="false"><path fill="none" d="M0 0h24v24H0z"/><path fill="#74767B" fill-rule="evenodd" d="M12 3c-4.98 0-9 4.02-9 9 0 4.97 4.02 9 9 9a9 9 0 0 0 9-9c0-4.98-4.03-9-9-9M6.19 8.54c.1 4.62 2.34 7.4 6.27 7.4h.22V13.3c1.45.14 2.54 1.23 2.97 2.64h2.05c-.57-2.1-2.04-3.27-2.96-3.71.92-.55 2.21-1.88 2.52-3.69h-1.85c-.4 1.47-1.59 2.8-2.73 2.93V8.54h-1.85v5.13c-1.15-.3-2.6-1.74-2.67-5.13z"/></svg>
